!!!!SEGMENT: pl-kk--kk-i-7--058-002_palestrina-giovanni-pierluigi-da--missa-inviolata-et-in-terra.krn
!!!cenid: 16xx:895
!!!COM: Palestrina, Giovanni Pierluigi da
!!!COM-rismID: pe1904
!!!CDT: ~1525-1594/02/02
!!!CNT: Italian
!!!OPR: Missa Inviolata
!!!OTL: Et in terra
!!!OMV: 002
!!!PDT:
!!!AGN: Sacred; Mass
!!!SMS-siglum: PL-Kk
!!!SMS-shelfmark: Kk.I.7
!!!SMS-shelfwork: 058-002 M
!!!SMS-variant:
!!!SMS-altvar:
!!!NIFC-rismSourceID: 300258077
!!!NIFC-rismChildID: 300258135
!!!NIFC-islandoraID: pl-kk:1956
!!!URL-pdf-islandora: https://repozytorium.nifc.pl/islandora/object/pl-kk%3A1956/datastream/PDF/view
!!!URL-scan: https://polish.musicsources.pl/pl/lokalizacje/galeria/rekopisy/6140 @EN{Scan on Polish Music Sources Website} @PL{Skany w portalu Dziedzictwo Muzyki Polskiej w otwartym dostępie}
!!!ONB-nifc: UWAGA: C (skan 0056-0058, s.105-108), A (0140-0142, s.101-105), T(0217-0219, s.97-100), B(0304-0305, s.94-97). Części Mszy: 1. Kyrie, 2. Et in terra, 3. Sanctus, 4. Agnus Dei
!!!AIN: 1 alto 1 bass 1 soprn 1 tenor
!!!key:
**kern	**text	**kern	**text	**kern	**text	**kern	**text
*part4	*part4	*part3	*part3	*part2	*part2	*part1	*part1
*staff4	*staff4	*staff3	*staff3	*staff2	*staff2	*staff1	*staff1
*Ibass	*	*Itenor	*	*Ialto	*	*Isoprn	*
*I"[BASSVS.]	*	*I"[TENOR.]	*	*I"[ALTVS.]	*	*I"[CANTVS.]	*
*I'B	*	*I'T	*	*I'A	*	*I'S	*
*clefF4	*	*clefC4	*	*clefC3	*	*clefC1	*
*k[b-]	*	*k[b-]	*	*k[b-]	*	*k[b-]	*
*F:	*	*F:	*	*F:	*	*F:	*
*M2/1	*	*M2/1	*	*M2/1	*	*M2/1	*
*met(C|)	*	*met(C|)	*	*met(C|)	*	*met(C|)	*
=1-	=1-	=1-	=1-	=1-	=1-	=1-	=1-
!	!	!LO:TX:t=P:problem=kreska pseudotaktowa	!	!	!	!	!
00r	.	1r	.	1.c\	Et	00r	.
.	.	1.F/	Et	.	.	.	.
*	*	*	*	*2\right	*	*	*
.	.	.	.	2c\	in	.	.
=2-	=2-	=2-	=2-	=2-	=2-	=2-	=2-
.	.	.	.	1c\	ter-	.	.
.	.	2F/	in	.	.	.	.
!	!	!	!	!LO:TX:t=P:problem=kreska pseudotaktowa	!	!	!
.	.	1F/	ter-	1d\	-ra	.	.
=3-	=3-	=3-	=3-	=3-	=3-	=3-	=3-
!	!	!LO:TX:t=P:problem=kreska pseudotaktowa	!	!	!	!LO:TX:t=P:problem=kreska pseudotaktowa	!
00r	.	1G/	-ra	1e\	pax	0r	.
.	.	1A\,	pax	2.f\	ho-	.	.
.	.	.	.	4e\	.	.	.
=4-	=4-	=4-	=4-	=4-	=4-	=4-	=4-
.	.	1.B-\	ho-	4d\	.	1.f/	Et
.	.	.	.	4c\	.	.	.
.	.	.	.	1d\	.	.	.
!	!	!	!	!	!	!LO:TX:t=P:problem=kreska pseudotaktowa	!
.	.	4A/	.	4c/	.	2f/	in
!	!	!	!	!LO:TX:t=P:problem=kreska pseudotaktowa	!	!	!
.	.	4G/	.	4B-/	.	.	.
=5-	=5-	=5-	=5-	=5-	=5-	=5-	=5-
*	*	*2\right	*	*	*	*	*
!LO:TX:t=P:problem=kreska pseudotaktowa	!	!	!	!	!	!	!
00r	.	2A\	.	2c\	.	1f/	ter-
!	!	!	!	!LO:TX:t=P:problem=kreska pseudotaktowa	!	!	!
.	.	1B-\	.	[<2d\	.	.	.
!	!	!	!	!	!	!LO:TX:t=P:problem=kreska pseudotaktowa	!
.	.	.	.	2d\]	.	1g\	-ra
.	.	2c\	.	2.e\	-mi-	.	.
=6-	=6-	=6-	=6-	=6-	=6-	=6-	=6-
!LO:TX:t=P:problem=kreska pseudotaktowa	!	!	!	!	!	!	!
.	.	2A/	.	.	.	1a\	pax
.	.	.	.	4c/	.	.	.
.	.	4G/	.	2e\	.	.	.
.	.	4F/	.	.	.	.	.
.	.	2.G/	mi-	1f\	-ni-	1b-\	ho-
.	.	4G/	-ni-	.	.	.	.
=7-	=7-	=7-	=7-	=7-	=7-	=7-	=7-
!	!	!LO:TX:t=P:problem=kreska pseudotaktowa	!	!	!	!	!
2r	.	1F/	-b(us)	1c\	-bus	1a\	-mi-
1F\	Bo-	.	.	.	.	.	.
.	.	2r	.	0r	.	1g\	-ni-
*2\right	*	*	*	*	*	*	*
!LO:TX:t=P:problem=kreska pseudotaktowa	!	!	!	!	!	!	!
2E\	-nae	1c\	bo-	.	.	.	.
=8-	=8-	=8-	=8-	=8-	=8-	=8-	=8-
!	!	!	!	!	!	!LO:TX:t=P:problem=kreska pseudotaktowa	!
2.F\	vo-	.	.	.	.	1a\	-b(us)
!	!	!LO:TX:t=P:problem=kreska pseudotaktowa	!	!	!	!	!
.	.	2A\	-nae	.	.	.	.
4E\	.	.	.	.	.	.	.
!	!	!	!	!LO:TX:t=P:problem=wartość pominięta	!	!	!
2D/	-lun-	2B-\	vo-	1ryy	.	0r	.
2C/	-ta-	2.A/	-lun-	.	.	.	.
=9-	=9-	=9-	=9-	=9-	=9-	=9-	=9-
1BB-/	.	.	.	2r	.	.	.
.	.	8G/L	.	.	.	.	.
.	.	8F/J	.	.	.	.	.
!	!	!LO:TX:t=P:problem=kreska pseudotaktowa	!	!	!	!	!
.	.	2G/	-ta-	1d\	no-	.	.
!LO:TX:t=P:problem=kreska pseudotaktowa	!	!	!	!	!	!	!
1AA/	-tis	2.A/	.	.	.	2r	.
!	!	!	!	!LO:TX:t=P:problem=kreska pseudotaktowa	!	!	!
.	.	.	.	2c\	Vo-	1a\	bo-
.	.	4G/	.	.	.	.	.
=10-	=10-	=10-	=10-	=10-	=10-	=10-	=10-
0r	.	4F/	.	2.d\	.	.	.
.	.	4E/	.	.	.	.	.
.	.	2D/	.	.	.	2f/	-nae
.	.	.	.	4c/	.	.	.
.	.	2E-X/	.	2B-X/	-lun-	2g/	Vo-
.	.	2F/	.	2A/	.	2.f/	-lun-
=11-	=11-	=11-	=11-	=11-	=11-	=11-	=11-
*	*	*custos:A	*	*	*	*	*
!	!	!LO:TX:t=P:problem=kreska pseudotaktowa	!	!	!	!	!
!LO:TX:t=P:problem=kreska pseudotaktowa	!	!	!	!	!	!	!
1r	.	1C/	-tis	1G/	-ta-	.	.
.	.	.	.	.	.	8e/L	.
.	.	.	.	.	.	8d/J	.
.	.	.	.	.	.	2e/	.
!	!	!LO:LB:g=original	!	!	!	!	!
!	!	!	!	!LO:TX:t=P:problem=kreska pseudotaktowa	!	!	!
2r	.	2r	.	1F/	-tis	1f/	-ta-
2F\	Lau-	2A\	Lau-	.	.	.	.
=12-	=12-	=12-	=12-	=12-	=12-	=12-	=12-
!	!	!	!	!	!	!LO:TX:t=P:problem=kreska pseudotaktowa	!
2F\	-da-	2A\	-da-	1r	.	1c/	-tis,
!	!	!LO:TX:t=P:problem=kreska pseudotaktowa	!	!	!	!	!
2E\	-m(us)	2G/	.	.	.	.	.
!LO:TX:t=P:problem=kreska pseudotaktowa	!	!	!	!	!	!	!
1F\	Te	2.A\	-m(us)	2r	.	2r	.
.	.	.	.	1f\	be-	1a\	be-
.	.	4B-\	.	.	.	.	.
=13-	=13-	=13-	=13-	=13-	=13-	=13-	=13-
*	*	*lig	*	*	*	*2\right	*
00r	.	1c\	Te	.	.	.	.
!	!	!	!	!LO:TX:t=P:problem=kreska pseudotaktowa	!	!	!
.	.	.	.	2e\	-ne-	2g\	-ne-
!	!	!	!	!LO:LB:g=original	!	!	!
.	.	1F/	.	2.f\	-di-	2.a\	-di-
.	.	.	.	4e\	-ci-	4g/	.
*	*	*Xlig	*	*	*	*	*
=14-	=14-	=14-	=14-	=14-	=14-	=14-	=14-
.	.	1r	.	2d\	-mus	2f/	.
.	.	.	.	2c\	.	2.g/	ci-
.	.	2r	.	2B-/	Te	.	.
.	.	.	.	.	.	4f/	.
!	!	!	!	!LO:TX:t=P:problem=kreska pseudotaktowa	!	!LO:TX:t=P:global:problem=oddech jako rozdzielacz słów, przeważnie na wysokości dźwięku poprzedzającego	!
.	.	1c\	be-	2c\	.	2e,/	-m(us)
=15-	=15-	=15-	=15-	=15-	=15-	=15-	=15-
!LO:TX:t=P:problem=kreska pseudotaktowa	!	!	!	!	!	!	!
*	*	*	*	*	*	*lig	*
1r	.	.	.	1G/	.	1d/	Te
.	.	2B-\	-ne-	.	.	.	.
!	!	!	!	!	!	!LO:TX:t=P:problem=kreska pseudotaktowa	!
2r	.	2.c\	-di-	2.A/	.	1c/	.
1F\	be-	.	.	.	.	.	.
.	.	4B-\	-ci-	4B-/	.	.	.
*	*	*	*	*	*	*Xlig	*
!	!	!	!	!	!	!LO:LB:g=original	!
=16-	=16-	=16-	=16-	=16-	=16-	=16-	=16-
!	!	!	!	!LO:TX:t=P:problem=kreska pseudotaktowa	!	!	!
.	.	2A/	-m(us)	0c\	.	0r	.
2E\	-ne-	2G/	.	.	.	.	.
2.F\	-di-	2A/	.	.	.	.	.
.	.	4F/	Te	.	.	.	.
4E\	-ci-	4G/	.	.	.	.	.
=17-	=17-	=17-	=17-	=17-	=17-	=17-	=17-
!	!	!	!	!	!	!LO:TX:t=P:problem=kreska pseudotaktowa	!
(>2D/	-mus	4A\	.	1r	.	1r	.
.	.	4B-\	.	.	.	.	.
2C/)	.	2c\	.	.	.	.	.
2.D/	.	2B-\	.	2r	.	2r	.
.	.	2A\	.	1f\	a-	1a\	a-
4D/	.	.	.	.	.	.	.
=18-	=18-	=18-	=18-	=18-	=18-	=18-	=18-
*	*	*lig	*	*	*	*	*
1C/	Te	1c\	.	.	.	.	.
!	!	!	!	!LO:TX:t=P:problem=kreska pseudotaktowa	!	!LO:TX:t=P:problem=kreska pseudotaktowa	!
.	.	.	.	2e\	-do-	2g\	-do-
!LO:TX:t=P:problem=kreska pseudotaktowa	!	!LO:TX:t=P:problem=kreska pseudotaktowa	!	!	!	!	!
00r	.	1F/	.	2.f\	-ra-	2.a\	-ra-
.	.	.	.	4e\	.	4g\	.
*	*	*Xlig	*	*	*	*	*
=19-	=19-	=19-	=19-	=19-	=19-	=19-	=19-
.	.	1r	.	2d\	.	2f/	.
!	!	!	!	!LO:TX:t=P:problem=kreska pseudotaktowa	!	!	!
.	.	.	.	2c\	.	2.g/	.
.	.	2r	.	2B-/	.	.	.
.	.	.	.	.	.	4f/	.
!	!	!	!	!LO:TX:t=P:problem=kreska pseudotaktowa	!	!	!
.	.	1c\	a-	2c/	-mus	2e,/	-m(us)
=20-	=20-	=20-	=20-	=20-	=20-	=20-	=20-
.	.	.	.	1G/	Te	1d/	Te,
.	.	2B-\	-do-	.	.	.	.
!LO:LB:g=original	!	!	!	!	!	!LO:TX:t=P:problem=kreska pseudotaktowa	!
2r	.	2.c\	-ra-	2.A/	.	1c/	.
1F\	a-	.	.	.	.	.	.
.	.	4B-\	.	4B-/	.	.	.
=21-	=21-	=21-	=21-	=21-	=21-	=21-	=21-
!	!	!	!	!LO:TX:t=P:problem=kreska pseudotaktowa	!	!	!
.	.	2A/	.	1c\	.	0r	.
!	!	!LO:TX:t=P:problem=kreska pseudotaktowa	!	!	!	!	!
2E\	-do-	2G/	.	.	.	.	.
2.F\	-ra-	2.A\	.	2r	.	.	.
.	.	.	.	2f\	glo-	.	.
4E\	.	4G/	.	.	.	.	.
=22-	=22-	=22-	=22-	=22-	=22-	=22-	=22-
2D/	.	4A\	.	2f\	-ri-	2r	.
.	.	4B-\	.	.	.	.	.
!	!	!	!	!LO:TX:t=P:problem=kreska pseudotaktowa	!	!	!
2C/	-m(us)	2c\	-m(us)	2e\	-fi-	2cc\	glo-
*	*	*custos:c	*	*	*	*	*
!	!	!LO:TX:t=P:problem=kreska pseudotaktowa	!	!	!	!	!
!LO:TX:t=P:problem=kreska pseudotaktowa	!	!	!	!	!	!	!
1D\	Te	1F/	Te.	1f\	-ca-	2cc\	-ri-
!	!	!	!	!	!	!LO:TX:t=P:problem=kreska pseudotaktowa	!
.	.	.	.	.	.	2b-\	-fi-
!	!	!LO:PB:g=original	!	!	!	!	!
=23-	=23-	=23-	=23-	=23-	=23-	=23-	=23-
1C/	glo-	2r	.	2e\	.	2.cc\	-ca-
!	!	!	!	!LO:TX:t=P:problem=kreska pseudotaktowa	!	!	!
.	.	2c\	glo-	2c\	.	.	.
.	.	.	.	.	.	4b-\	.
2F\	-ri-	2c\	-ri-	2.d\	.	2a\	.
!	!	!	!	!	!	!LO:TX:t=P:problem=kreska pseudotaktowa	!
2G\	-fi-	2B-\	-fi-	.	.	2g\	.
*	*	*	*	*custos:f	*	*	*
!	!	!	!	!LO:TX:t=P:problem=kreska pseudotaktowa	!	!	!
.	.	.	.	4e\	.	.	.
!	!	!	!	!LO:LB:g=original	!	!	!
=24-	=24-	=24-	=24-	=24-	=24-	=24-	=24-
1.F\	-ca-	2.c\	-ca-	2f\	.	2.a\	.
.	.	.	.	4F/	.	.	.
.	.	4B-\	.	4G/	.	4g/	.
.	.	2A/	.	4A/	.	2f/	.
.	.	.	.	4F/	.	.	.
!	!	!LO:TX:t=P:problem=kreska pseudotaktowa	!	!	!	!	!
2E\	.	2G/	.	2.c\	.	2.g/	.
=25-	=25-	=25-	=25-	=25-	=25-	=25-	=25-
*lig	*	*	*	*	*	*	*
1D\	-mus	2A/	.	.	.	.	.
.	.	.	.	4A/	.	4f/	.
!	!	!	!	!LO:TX:t=P:problem=kreska pseudotaktowa	!	!	!
.	.	4G/	.	2B-/	-mus	1f/	.
.	.	4F/	.	.	.	.	.
1C/	.	2.G/	.	1c\	Te	.	.
.	.	.	.	.	.	2e/	-mus
.	.	4G/	-mus	.	.	.	.
*Xlig	*	*	*	*	*	*	*
=26-	=26-	=26-	=26-	=26-	=26-	=26-	=26-
*	*	*	*	*	*	*custos:a	*
!	!	!	!	!	!	!LO:TX:t=P:problem=kreska pseudotaktowa	!
!	!	!	!	!LO:TX:t=P:problem=kreska pseudotaktowa	!	!	!
2FF,/	Te	0.F/	Te.	1A/	.	0f/	Te
*	*ij	*	*	*	*	*	*
2.F\	glo-	.	.	.	.	.	.
.	.	.	.	2r	.	.	.
4E\	.	.	.	.	.	.	.
4D\	-ri-	.	.	1d\	Gra-	.	.
4C\	.	.	.	.	.	.	.
!	!	!	!	!	!	!LO:PB:g=original	!
=27-	=27-	=27-	=27-	=27-	=27-	=27-	=27-
!	!	!LO:TX:t=P:problem=kreska pseudotaktowa	!	!	!	!	!
1D\	-fi-	.	.	.	.	2r	.
.	.	.	.	2d\	-ti-	1a\	Gra-
2.AA/	-ca-	00r	.	2c\	-as	.	.
.	.	.	.	1f\	a-	2a\	-ti-
!LO:TX:t=P:problem=kreska pseudotaktowa	!	!	!	!	!	!	!
4BB-/	-mus	.	.	.	.	.	.
=28-	=28-	=28-	=28-	=28-	=28-	=28-	=28-
!LO:TX:t=P:problem=kreska pseudotaktowa	!	!	!	!	!	!	!
1C/	Te	.	.	.	.	2g,\	-as
!	!	!	!	!LO:TX:t=P:problem=kreska pseudotaktowa	!	!	!
.	.	.	.	2e\	-gi-	1cc\	a-
00r	.	.	.	2c\	-mus	.	.
!	!	!	!	!	!	!LO:TX:t=P:problem=kreska pseudotaktowa	!
.	.	.	.	2.d\	Ti-	2b-\	-gi-
=29-	=29-	=29-	=29-	=29-	=29-	=29-	=29-
.	.	.	.	.	.	2a\	-m(us)
.	.	.	.	4c/	.	.	.
.	.	.	.	4B-/	.	1b-\	Ti-
.	.	.	.	4A/	.	.	.
.	.	1.d\	pro-	2G/	.	.	.
!	!	!	!	!LO:TX:t=P:problem=kreska pseudotaktowa	!	!	!
.	.	.	.	2F/	.	4a\	.
.	.	.	.	.	.	4g\	.
=30-	=30-	=30-	=30-	=30-	=30-	=30-	=30-
.	.	.	.	1B-/	.	2f/	.
.	.	2d\	-pter	.	.	2g\	.
2r	.	1c\	ma-	2.A/	.	0a\	-bi
*	*Xij	*	*	*	*	*	*
1A\	pro-	.	.	.	.	.	.
.	.	.	.	4B-/	.	.	.
=31-	=31-	=31-	=31-	=31-	=31-	=31-	=31-
*	*	*	*	*lig	*	*	*
!	!	!	!	!	!	!LO:TX:t=P:problem=kreska pseudotaktowa	!
.	.	2A,\	-gnam	1c\	.	.	.
!LO:TX:t=P:problem=kreska pseudotaktowa	!	!	!	!	!	!	!
2A\	-pter	1c\	glo-	.	.	.	.
1G\	ma-	.	.	1d\	.	1r	.
.	.	2B-\	-ri-	.	.	.	.
*	*	*	*	*Xlig	*	*	*
=32-	=32-	=32-	=32-	=32-	=32-	=32-	=32-
!	!	!	!	!LO:TX:t=P:problem=kreska pseudotaktowa	!	!	!
2E,\	-gna(m)	2G,/	-am	0c\	-bi	2r	.
*	*ij	*	*	*	*	*	*
1F\	ma-	4A/	glo-	.	.	2a\	pro-
!	!	!LO:TX:t=P:problem=kreska pseudotaktowa	!	!	!	!	!
.	.	4G/	.	.	.	.	.
.	.	4A\	.	.	.	2a\	-pter
.	.	4B-\	.	.	.	.	.
!LO:TX:t=P:problem=kreska pseudotaktowa	!	!	!	!	!	!LO:TX:t=P:problem=kreska pseudotaktowa	!
2E\	.	2.c\	.	.	.	2g\	ma-
=33-	=33-	=33-	=33-	=33-	=33-	=33-	=33-
2C,/	-gnam	.	.	0r	.	2e/	-gna(m)
.	.	4B-\	.	.	.	.	.
*	*Xij	*	*	*	*	*	*
2.D/	glo-	4A\	.	.	.	2.f/	glo-
!	!	!LO:TX:t=P:problem=kreska pseudotaktowa	!	!	!	!	!
.	.	4G\	.	.	.	.	.
.	.	4F/	ri-	.	.	.	.
4C/	-ri-	4G/	.	.	.	4e/	-ri-
!LO:TX:t=P:problem=kreska pseudotaktowa	!	!	!	!	!	!	!
2AA/	-am	1A\	-am	.	.	2c/	-am
!LO:PB:g=original	!	!	!	!	!	!	!
=34-	=34-	=34-	=34-	=34-	=34-	=34-	=34-
!	!	!	!	!LO:TX:t=P:problem=kreska pseudotaktowa	!	!	!
1BB-/	tu-	.	.	1r	.	1d/	tu-
.	.	2G/	tu-	.	.	.	.
!	!	!	!	!	!	!LO:TX:t=P:problem=kreska pseudotaktowa	!
2FF,/	-am	0A\	-am	2r	.	1c/	-am,
2.F\	Do-	.	.	2.f\	Do-	.	.
=35-	=35-	=35-	=35-	=35-	=35-	=35-	=35-
!	!	!LO:TX:t=P:problem=kreska pseudotaktowa	!	!	!	!	!
.	.	.	.	.	.	2r	.
4F\	-mi-	.	.	4f\	-mi-	.	.
!LO:TX:t=P:problem=kreska pseudotaktowa	!	!	!	!	!	!	!
2F\	-ne	.	.	2f\	-ne	2.cc\	Do-
1A\	De-	1r	.	2e\	DE-	.	.
.	.	.	.	.	.	4cc\	-mi-
.	.	.	.	2c\	-(us)	2cc\	-ne
!	!	!LO:LB:g=original	!	!	!	!	!
=36-	=36-	=36-	=36-	=36-	=36-	=36-	=36-
1G\	.	00r	.	2d\	Rex	2b-\	De-
!	!	!	!	!LO:TX:t=P:problem=kreska pseudotaktowa	!	!	!
.	.	.	.	2e\	cae-	2g\	-us
!	!	!	!	!LO:LB:g=original	!	!	!
!LO:TX:t=P:problem=kreska pseudotaktowa	!	!	!	!	!	!	!
1F\	-us	.	.	2f\	-le-	2.a\	Rex
.	.	.	.	4F/	.	.	.
.	.	.	.	4G/	.	4g/	.
=37-	=37-	=37-	=37-	=37-	=37-	=37-	=37-
0r	.	.	.	4A/	.	2f/	cae-
.	.	.	.	4B-/	.	.	.
.	.	.	.	4c/	.	2e/	-le-
.	.	.	.	4A/	.	.	.
.	.	.	.	1B-/	.	1d/	.
=38-	=38-	=38-	=38-	=38-	=38-	=38-	=38-
!	!	!	!	!LO:TX:t=P:problem=kreska pseudotaktowa	!	!LO:TX:t=P:problem=kreska pseudotaktowa	!
2r	.	2r	.	1A/	-stis,	0c/	stis,
1F\	De-	1A\	De-	.	.	.	.
.	.	.	.	2r	.	.	.
!LO:TX:t=P:problem=kreska pseudotaktowa	!	!	!	!	!	!	!
2F\	-us	2A\	-us	1c\	De-	.	.
!	!	!	!	!	!	!LO:LB:g=original	!
=39-	=39-	=39-	=39-	=39-	=39-	=39-	=39-
1F\	Pa-	1A\	Pa-	.	.	00r	.
.	.	.	.	2c\	-us	.	.
!	!	!	!	!LO:TX:t=P:problem=kreska pseudotaktowa	!	!	!
2E,\	-ter	2G/	.	1c\	Pa-	.	.
!	!	!LO:TX:t=P:problem=kreska pseudotaktowa	!	!	!	!	!
2C/	o-	2E/	-ter	.	.	.	.
=40-	=40-	=40-	=40-	=40-	=40-	=40-	=40-
!	!	!	!	!	!	!LO:TX:t=P:problem=kreska pseudotaktowa	!
2.D/	.	2.F/	O-	2B-/	-ter	.	.
.	.	.	.	2A/	.	.	.
4C/	.	4E/	.	.	.	.	.
2BB-/	.	2D/	.	2G/	om-	.	.
2AA/	.	2C/	.	1F/	-ni-	.	.
=41-	=41-	=41-	=41-	=41-	=41-	=41-	=41-
2.GG/	-mni-	1G/	.	.	.	1b-\	Do-
!	!	!	!	!LO:TX:t=P:problem=kreska pseudotaktowa	!	!	!
.	.	.	.	2E/	-po-	.	.
4GG/	-po-	.	.	.	.	.	.
!LO:TX:t=P:problem=kreska pseudotaktowa	!	!	!	!	!	!	!
1FF/,	-tens	2.A\	.	2F,/	-tens	2a\	-mi-
.	.	.	.	2f\	Do-	2a\	-ne
.	.	4B-\	.	.	.	.	.
=42-	=42-	=42-	=42-	=42-	=42-	=42-	=42-
2r	.	2.c\	mni-	2e\	-mi-	1g\	Fi-
!	!	!	!	!LO:TX:t=P:problem=kreska pseudotaktowa	!	!	!
2C/	Do-	.	.	2e\	-ne	.	.
.	.	4c\	-po-	.	.	.	.
!	!	!LO:TX:t=P:problem=kreska pseudotaktowa	!	!	!	!	!
4D\	.	1F/	-tens	1d\	Fi-	2f/	-li
4E\	.	.	.	.	.	.	.
4F\	.	.	.	.	.	1a\	U-
!LO:TX:t=P:problem=kreska pseudotaktowa	!	!	!	!	!	!	!
4G\	.	.	.	.	.	.	.
=43-	=43-	=43-	=43-	=43-	=43-	=43-	=43-
2A\	mi-	0r	.	2c\	-li	.	.
!	!	!	!	!	!	!LO:TX:t=P:problem=kreska pseudotaktowa	!
2B-\	-ne	.	.	1d\	U-	2g\	-ni-
1A\	Fi-	.	.	.	.	2f/	-ge-
!	!	!	!	!LO:TX:t=P:problem=kreska pseudotaktowa	!	!	!
.	.	.	.	2c\	-ni-	2e/	-ni-
=44-	=44-	=44-	=44-	=44-	=44-	=44-	=44-
!LO:TX:t=P:problem=kreska pseudotaktowa	!	!LO:TX:t=P:problem=kreska pseudotaktowa	!	!	!	!LO:TX:t=P:problem=kreska pseudotaktowa	!
1D\	-li	1r	.	2B-/	-ge-	0d/	-te
.	.	.	.	2A/	-ni-	.	.
!LO:TX:t=P:problem=kreska pseudotaktowa	!	!	!	!LO:TX:t=P:problem=kreska pseudotaktowa	!	!	!
1r	.	1B-\	Do-	1G/	-te	.	.
=45-	=45-	=45-	=45-	=45-	=45-	=45-	=45-
*	*ij	*	*	*	*	*	*
1F\	Do-	2A\	-mi-	2r	.	00r	.
.	.	2A\	-ne	1d\	U-	.	.
2E\	-mi-	1G/	Fi-	.	.	.	.
!	!	!	!	!LO:TX:t=P:problem=kreska pseudotaktowa	!	!	!
2E\	-ne	.	.	2c\	-ni-	.	.
=46-	=46-	=46-	=46-	=46-	=46-	=46-	=46-
1D\	Fi-	2F,/	-li	4d\	-ge-	.	.
.	.	.	.	4e\	.	.	.
.	.	2.A\	U-	4f\	.	.	.
.	.	.	.	4d\	.	.	.
2C,/	-li	.	.	2e\	.	.	.
.	.	4G/	.	.	.	.	.
*	*Xij	*	*	*	*	*	*
1D\	U-	1F/	-ni-	2A/	-ni-	.	.
=47-	=47-	=47-	=47-	=47-	=47-	=47-	=47-
!	!	!	!	!LO:TX:t=P:problem=kreska pseudotaktowa	!	!LO:TX:t=P:problem=kreska pseudotaktowa	!
.	.	.	.	1A/,	-te	1r	.
!	!	!	!	!LO:LB:g=original	!	!	!
!LO:TX:t=P:problem=kreska pseudotaktowa	!	!LO:TX:t=P:problem=kreska pseudotaktowa	!	!	!	!	!
2C/	-ni-	2E/	-ge-	.	.	.	.
!LO:LB:g=original	!	!	!	!	!	!	!
2BB-/	-ge-	2.D/	.	0d\	Je-	0f/	Je-
2BB-/	-ni-	.	.	.	.	.	.
.	.	4D/	-ni-	.	.	.	.
=48-	=48-	=48-	=48-	=48-	=48-	=48-	=48-
!LO:TX:t=P:problem=kreska pseudotaktowa	!	!LO:TX:t=P:problem=kreska pseudotaktowa	!	!	!	!	!
0AA/	-te	1A\,	-te	.	.	.	.
!	!	!	!	!LO:TX:t=P:problem=kreska pseudotaktowa	!	!	!
.	.	0A\	Je-	0c\	-su	1e/	-su
=49-	=49-	=49-	=49-	=49-	=49-	=49-	=49-
0F\	Je-	.	.	.	.	0a\	X-
*	*	*	*	*	*ij	*	*
.	.	0c\	-su	1.f\	Je-	.	.
=50-	=50-	=50-	=50-	=50-	=50-	=50-	=50-
!LO:TX:t=P:problem=kreska pseudotaktowa	!	!LO:TX:t=P:problem=kreska pseudotaktowa	!	!	!	!	!
0C/	-su	.	.	.	.	00g\	-te
.	.	.	.	4e\	.	.	.
.	.	.	.	4d\	.	.	.
!	!	!LO:LB:g=original	!	!	!	!	!
.	.	1.c\	Chri-	1e\	-su	.	.
*	*	*	*	*	*Xij	*	*
=51-	=51-	=51-	=51-	=51-	=51-	=51-	=51-
!	!	!	!	!	!	!LO:TX:t=P:problem=kreska pseudotaktowa	!
*	*ij	*	*	*	*	*	*
1G\	Je-	.	.	0d\	X-	.	.
.	.	4Bn\	.	.	.	.	.
.	.	4A\	.	.	.	.	.
!	!	!LO:TX:t=P:problem=kreska pseudotaktowa	!	!	!	!	!
2.G\	.	1Bn\,	-ste	.	.	.	.
4F\	.	.	.	.	.	.	.
=52-	=52-	=52-	=52-	=52-	=52-	=52-	=52-
!	!	!	!	!LO:TX:t=P:problem=kreska pseudotaktowa	!	!	!
2E,\	-su	2.c\	Je-	0c\	-te	2r	.
*	*Xij	*	*	*	*	*	*
2F\	X-	.	.	.	.	1f/	Do-
.	.	4B-\	.	.	.	.	.
!LO:TX:t=P:problem=kreska pseudotaktowa	!	!	!	!	!	!	!
1C/	-te	2A\	-su	.	.	.	.
.	.	2G,/	.	.	.	2e/	-mi-
=53-	=53-	=53-	=53-	=53-	=53-	=53-	=53-
00r	.	1A\	X-	2r	.	4c/	-ne
.	.	.	.	.	.	4d/	.
.	.	.	.	1c\	Do-	4e/	.
!	!	!	!	!	!	!LO:TX:t=P:problem=kreska pseudotaktowa	!
.	.	.	.	.	.	4f/	.
!	!	!LO:TX:t=P:problem=kreska pseudotaktowa	!	!	!	!	!
.	.	1G/,	-te	.	.	4g\	.
.	.	.	.	.	.	4f\	.
!	!	!	!	!LO:TX:t=P:problem=kreska pseudotaktowa	!	!	!
.	.	.	.	2B-/	-mi-	4g\	.
.	.	.	.	.	.	4a\	.
=54-	=54-	=54-	=54-	=54-	=54-	=54-	=54-
.	.	2r	.	4G/	-ne	1.b-\	De-
.	.	.	.	4A/	.	.	.
.	.	1G/	Do-	4B-/	.	.	.
.	.	.	.	4c/	.	.	.
.	.	.	.	4d\	.	.	.
.	.	.	.	4c\	.	.	.
.	.	2F/	-mi-	4d\	.	4a\	.
!	!	!	!	!LO:TX:t=P:problem=kreska pseudotaktowa	!	!LO:TX:t=P:problem=kreska pseudotaktowa	!
.	.	.	.	4e\	.	4g\	.
=55-	=55-	=55-	=55-	=55-	=55-	=55-	=55-
!LO:TX:t=P:problem=kreska pseudotaktowa	!	!	!	!	!	!	!
00r	.	4D/	-ne	1.f\	De-	1.a\	.
.	.	4E/	.	.	.	.	.
.	.	4F/	.	.	.	.	.
!	!	!LO:TX:t=P:problem=kreska pseudotaktowa	!	!	!	!	!
.	.	4G/	.	.	.	.	.
.	.	4A\	.	.	.	.	.
.	.	4B-\	.	.	.	.	.
!	!	!	!	!	!	!LO:TX:t=P:problem=kreska pseudotaktowa	!
.	.	2c\	.	2e\	.	2g/	.
=56-	=56-	=56-	=56-	=56-	=56-	=56-	=56-
.	.	2F/	De-	2d\	.	4f/	.
.	.	.	.	.	.	4e/	.
.	.	2A\	.	1c\	.	4d/	.
!	!	!	!	!	!	!LO:TX:t=P:problem=kreska pseudotaktowa	!
.	.	.	.	.	.	4c/	.
!	!	!	!	!	!	!LO:LB:g=original	!
*	*	*lig	*	*	*	*	*
.	.	1G/	.	.	.	2.d/	.
.	.	.	.	2Bn/	-us	.	.
.	.	.	.	.	.	4e/	.
=57-	=57-	=57-	=57-	=57-	=57-	=57-	=57-
!	!	!	!	!LO:TX:t=P:problem=kreska pseudotaktowa	!	!	!
2r	.	1F/	.	1c\	.	4f/	.
.	.	.	.	.	.	4g/	.
1F\	A-	.	.	.	.	1a\	.
*	*	*Xlig	*	*	*	*	*
!	!	!LO:TX:t=P:problem=kreska pseudotaktowa	!	!	!	!	!
.	.	1C/,	-us,	1r	.	.	.
2E\	-gn(us)	.	.	.	.	4g/	.
.	.	.	.	.	.	4f/	.
=58-	=58-	=58-	=58-	=58-	=58-	=58-	=58-
4C/	De-	00r	.	1c\	A-	1e/	.
4D/	.	.	.	.	.	.	.
4E/	.	.	.	.	.	.	.
4F/	.	.	.	.	.	.	.
2.G\	.	.	.	2B-/	gnus	2d,/	-us
.	.	.	.	4G/	De-	1g\	A-
!LO:TX:t=P:problem=kreska pseudotaktowa	!	!	!	!LO:TX:t=P:problem=kreska pseudotaktowa	!	!	!
4F\	.	.	.	4A/	.	.	.
=59-	=59-	=59-	=59-	=59-	=59-	=59-	=59-
4G\	.	.	.	4B-/	.	.	.
4A\	.	.	.	4c/	.	.	.
!	!	!	!	!	!	!LO:TX:t=P:problem=kreska pseudotaktowa	!
1B-\	.	.	.	4d/	.	2f/	-gn(us)
!	!	!	!	!LO:TX:t=P:problem=kreska pseudotaktowa	!	!	!
.	.	.	.	4e/	.	.	.
.	.	.	.	2.f\	.	4d/	De-
.	.	.	.	.	.	4e/	.
4A\	.	.	.	.	.	4f/	.
!LO:TX:t=P:problem=kreska pseudotaktowa	!	!	!	!	!	!	!
4G\	.	.	.	4e\	.	4g/	.
=60-	=60-	=60-	=60-	=60-	=60-	=60-	=60-
!	!	!LO:TX:t=P:problem=kreska pseudotaktowa	!	!	!	!	!
2F,\	-i,	0r	.	2d\	.	4a\	.
.	.	.	.	.	.	4b-\	.
!	!	!	!	!LO:TX:t=P:problem=kreska pseudotaktowa	!	!	!
2A\	A-	.	.	2c\	.	1cc\	.
!	!	!	!	!LO:LB:g=original	!	!	!
1G\	-gn(us)	.	.	2.d\	.	.	.
.	.	.	.	.	.	2b-\	.
.	.	.	.	4e\	.	.	.
=61-	=61-	=61-	=61-	=61-	=61-	=61-	=61-
1F\	De-	2r	.	1f\	.	1a\	.
.	.	1c\	Fi-	.	.	.	.
!LO:TX:t=P:problem=kreska pseudotaktowa	!	!	!	!LO:TX:t=P:problem=kreska pseudotaktowa	!	!	!
1G\	-i	.	.	0d\	-i	0g\	-i
!	!	!LO:TX:t=P:problem=kreska pseudotaktowa	!	!	!	!	!
.	.	2B-\	-li-	.	.	.	.
=62-	=62-	=62-	=62-	=62-	=62-	=62-	=62-
!	!	!	!	!	!	!LO:TX:t=P:problem=kreska pseudotaktowa	!
2r	.	4G/	-us	.	.	.	.
.	.	4A/	.	.	.	.	.
1G\	Fi-	4B-/	.	.	.	.	.
*	*	*custos:d	*	*	*	*	*
!	!	!LO:TX:t=P:problem=kreska pseudotaktowa	!	!	!	!	!
.	.	4c,/	.	.	.	.	.
!	!	!LO:LB:g=original	!	!	!	!	!
!	!	!	!	!	!	!LO:TX:a:t=3.	!
.	.	4d\	Pa-	2r	.	0r	.
.	.	4c\	.	.	.	.	.
*custos:D	*	*	*	*	*	*	*
!LO:TX:t=P:problem=kreska pseudotaktowa	!	!	!	!	!	!	!
2F\	-li-	4d\	.	1d\	Fi-	.	.
.	.	4e\	.	.	.	.	.
!LO:LB:g=original	!	!	!	!	!	!	!
=63-	=63-	=63-	=63-	=63-	=63-	=63-	=63-
!	!	!	!	!	!	!LO:TX:t=P:problem=kreska pseudotaktowa	!
2D,\	-us	2.f\	.	.	.	.	.
1F\	Pa-	.	.	4c/	.	.	.
!	!	!	!	!LO:TX:t=P:problem=kreska pseudotaktowa	!	!	!
.	.	4e\	.	4B-/	.	.	.
.	.	2d\	.	2A/	-li-	1r	.
2E\	.	1c\	.	2G/	-us	.	.
=64-	=64-	=64-	=64-	=64-	=64-	=64-	=64-
1D\	.	.	.	2A/	Pa-	2r	.
!	!	!	!	!LO:TX:t=P:problem=kreska pseudotaktowa	!	!	!
.	.	2B-\	.	2F/	.	1f/	Fi-
!LO:TX:t=P:problem=kreska pseudotaktowa	!	!	!	!	!	!	!
*	*	*	*	*lig	*	*	*
1C/,	-tris	0c\	-tris	1G/	.	.	.
.	.	.	.	.	.	2e/	-li-
=65-	=65-	=65-	=65-	=65-	=65-	=65-	=65-
!	!	!LO:TX:t=P:problem=kreska pseudotaktowa	!	!	!	!	!
2r	.	.	.	1A/	.	4c/	-us
.	.	.	.	.	.	4d/	.
1C/	Fi-	.	.	.	.	4e/	.
.	.	.	.	.	.	4f/	.
!	!	!	!	!	!	!LO:TX:t=P:problem=kreska pseudotaktowa	!
*	*	*	*	*Xlig	*	*	*
!	!	!	!	!LO:TX:t=P:problem=kreska pseudotaktowa	!	!	!
.	.	1r	.	0G/	-tris.	4g\	Pa-
.	.	.	.	.	.	4f\	.
!LO:TX:t=P:problem=kreska pseudotaktowa	!	!	!	!	!	!	!
2BB-/	-li-	.	.	.	.	4g\	.
.	.	.	.	.	.	4a\	.
=66-	=66-	=66-	=66-	=66-	=66-	=66-	=66-
4GG/	-us	2r	.	.	.	2.b-\	.
4AA/	.	.	.	.	.	.	.
4BB-/	.	1B-\	Fi-	.	.	.	.
4C/	.	.	.	.	.	4a\	.
4D\	Pa-	.	.	2r	.	4f/	.
4E\	.	.	.	.	.	4g/	.
2.F\	.	2A\	-li-	1c\	Fi-	2.a\	.
=67-	=67-	=67-	=67-	=67-	=67-	=67-	=67-
.	.	4F/	-us	.	.	.	.
4E\	.	4G/	.	.	.	4g/	.
!LO:TX:t=P:problem=kreska pseudotaktowa	!	!	!	!	!	!LO:TX:t=P:problem=kreska pseudotaktowa	!
2D\	.	4A/	.	2d\	-li-	2f/	.
!	!	!LO:TX:t=P:problem=kreska pseudotaktowa	!	!	!	!	!
.	.	4B-/	.	.	.	.	.
2C/	.	2c\	Pa-	2G/	-us	2e/	.
2GG/	.	2.B-\	.	2.d\	Pa-	2.g/	.
=68-	=68-	=68-	=68-	=68-	=68-	=68-	=68-
*lig	*	*	*	*	*	*	*
1D\	.	.	.	.	.	.	.
.	.	4A/	.	4c/	.	4f/	.
.	.	2F/	.	4A/	.	1f/	.
.	.	.	.	4B-/	.	.	.
1C/	.	1G/	.	1c\	.	.	.
.	.	.	.	.	.	2e/	.
*Xlig	*	*	*	*	*	*	*
=69-	=69-	=69-	=69-	=69-	=69-	=69-	=69-
0FF/;	-tris.	0F/;	-tris.	0A/;	-tris.	0f/;	-tris.
!	!	!LO:LB:g=original	!	!	!	!LO:LB:g=original	!
=70||-	=70||-	=70||-	=70||-	=70||-	=70||-	=70||-	=70||-
*M2/1	*	*M2/1	*	*M2/1	*	*M2/1	*
*met(C|)	*	*met(C|)	*	*met(C|)	*	*met(C|)	*
*	*	*k[b-]	*	*	*	*	*
!	!	!LO:TX:b:t=Qui tollis.	!	!	!	!LO:TX:t=P:problem=kreska pseudotaktowa	!
00r	.	00r	.	0d\	Qui	1r	.
.	.	.	.	.	.	0a\	Qui
=71-	=71-	=71-	=71-	=71-	=71-	=71-	=71-
.	.	.	.	1c\	tol-	.	.
.	.	.	.	2.B-/	-lis	1g\	tol-
.	.	.	.	4c/	.	.	.
=72-	=72-	=72-	=72-	=72-	=72-	=72-	=72-
00r	.	0r	.	4d\	.	2.f/	-lis
.	.	.	.	4e\	.	.	.
.	.	.	.	1f\	pec-	.	.
.	.	.	.	.	.	4g/	.
.	.	.	.	.	.	4a\	pec-
.	.	.	.	.	.	4b-\	.
!	!	!	!	!LO:TX:t=P:problem=kreska pseudotaktowa	!	!	!
.	.	.	.	2e\	.	1cc\	.
!	!	!	!	!LO:LB:g=original	!	!	!
=73-	=73-	=73-	=73-	=73-	=73-	=73-	=73-
!	!	!LO:TX:t=P:problem=kreska pseudotaktowa	!	!	!	!	!
.	.	1r	.	2f\	-ca-	.	.
!	!	!	!	!	!	!LO:TX:t=P:problem=kreska pseudotaktowa	!
.	.	.	.	2d\	-ta	2b-\	.
.	.	0A\	Mi-	1e\	mun-	1cc\	-ca-
=74-	=74-	=74-	=74-	=74-	=74-	=74-	=74-
00r	.	.	.	2c,/	-di	1a\	-ta
.	.	.	.	1f\	mi-	.	.
.	.	1G/	-se-	.	.	1b-\	mun-
.	.	.	.	2e\	-ſe-	.	.
=75-	=75-	=75-	=75-	=75-	=75-	=75-	=75-
.	.	2.F/	-re-	1.f\	-re-	2a,\	-di
.	.	.	.	.	.	1a\	mi-
.	.	4G/	.	.	.	.	.
.	.	4A\	.	.	.	.	.
.	.	4B-\	.	.	.	.	.
!	!	!	!	!	!	!LO:TX:t=P:problem=kreska pseudotaktowa	!
.	.	1c\	.	4e\	.	2g\	-ſe-
.	.	.	.	4d\	.	.	.
=76-	=76-	=76-	=76-	=76-	=76-	=76-	=76-
!LO:TX:t=P:problem=kreska pseudotaktowa	!	!	!	!	!	!	!
00r	.	.	.	2e\	.	1.g\	-re-
!	!	!	!	!LO:TX:t=P:problem=kreska pseudotaktowa	!	!	!
.	.	2B-\	.	2d\	-re	.	.
.	.	2c\	.	2e\	no-	.	.
!	!	!LO:TX:t=P:problem=kreska pseudotaktowa	!	!	!	!	!
.	.	2A,\	-re	2.f\	.	2a\	-re
=77-	=77-	=77-	=77-	=77-	=77-	=77-	=77-
*	*	*	*	*	*	*lig	*
.	.	1B-\	no-	.	.	1d/	no-
.	.	.	.	4e\	.	.	.
.	.	.	.	1d\	.	.	.
!	!	!LO:TX:t=P:problem=kreska pseudotaktowa	!	!	!	!	!
.	.	1A\,	-bis.	.	.	1e/	.
.	.	.	.	2c\	.	.	.
*	*	*	*	*	*	*Xlig	*
=78-	=78-	=78-	=78-	=78-	=78-	=78-	=78-
!	!	!LO:TX:t=P:problem=kreska pseudotaktowa	!	!LO:TX:t=P:problem=kreska pseudotaktowa	!	!	!
0D\	Qui	1r	.	0d\	-bis.	2d,/	-bis
.	.	.	.	.	.	1f/	mi-
.	.	0A\	Qui	.	.	.	.
.	.	.	.	.	.	4e/	-ſe-
!	!	!	!	!	!	!LO:TX:t=P:problem=kreska pseudotaktowa	!
.	.	.	.	.	.	4d/	.
=79-	=79-	=79-	=79-	=79-	=79-	=79-	=79-
1C/	tol-	.	.	00r	.	2e/	-re-
.	.	.	.	.	.	2c/	-re
2.BB-/	-lis	1G/	tol-	.	.	2.d/	no-
!LO:TX:t=P:problem=kreska pseudotaktowa	!	!	!	!	!	!	!
4C/	.	.	.	.	.	4e/	.
=80-	=80-	=80-	=80-	=80-	=80-	=80-	=80-
4D\	pec-	2.F/	-lis	.	.	1f/	.
4E\	.	.	.	.	.	.	.
1F\	.	.	.	.	.	.	.
.	.	4G/	.	.	.	.	.
!	!	!	!	!	!	!LO:TX:t=P:problem=kreska pseudotaktowa	!
.	.	4A\	.	.	.	1c/	-bis.
.	.	4B-\	.	.	.	.	.
2E\	-ca-	1c\	.	.	.	.	.
=81-	=81-	=81-	=81-	=81-	=81-	=81-	=81-
!	!	!	!	!LO:TX:t=P:problem=kreska pseudotaktowa	!	!	!
2F\	.	.	.	0r	.	00r	.
!LO:TX:t=P:problem=kreska pseudotaktowa	!	!LO:TX:t=P:problem=kreska pseudotaktowa	!	!	!	!	!
2G\	.	2B-\	pec-	.	.	.	.
!LO:LB:g=original	!	!	!	!	!	!	!
4F\	-ta	2c\	-ca-	.	.	.	.
4E\	.	.	.	.	.	.	.
1A\	mun-	2A\	-ta	.	.	.	.
=82-	=82-	=82-	=82-	=82-	=82-	=82-	=82-
!	!	!	!	!	!	!LO:TX:t=P:problem=kreska pseudotaktowa	!
.	.	1B-\	mun-	2r	.	.	.
2G\	.	.	.	1d\	Su-	.	.
*	*	*custos:c	*	*	*	*	*
!	!	!LO:TX:t=P:problem=kreska pseudotaktowa	!	!	!	!	!
!LO:TX:t=P:problem=kreska pseudotaktowa	!	!LO:TX:a:t=2	!	!	!	!	!
1A\	-di	0A\	-di	.	.	.	.
!	!	!	!	!LO:TX:t=P:problem=kreska pseudotaktowa	!	!	!
.	.	.	.	2c\	-sci-	.	.
!	!	!	!	!	!	!LO:LB:g=original	!
=83-	=83-	=83-	=83-	=83-	=83-	=83-	=83-
2r	.	.	.	2c,\	-pe	1.a\	Su-
1F\	Su-	.	.	1f\	Su-	.	.
!	!	!LO:LB:g=original	!	!	!	!	!
.	.	2r	.	.	.	.	.
2C/	-sci-	1c\	Su-	2e\	-sci-	2g\	-sci-
=84-	=84-	=84-	=84-	=84-	=84-	=84-	=84-
!LO:TX:t=P:problem=kreska pseudotaktowa	!	!	!	!	!	!LO:TX:t=P:problem=kreska pseudotaktowa	!
1C/,	-pe	.	.	4e\	-pe	1g\	-pe
.	.	.	.	4d\	.	.	.
.	.	2c\	-sci-	4c/	.	.	.
.	.	.	.	4B-/	.	.	.
!	!	!LO:TX:t=P:problem=kreska pseudotaktowa	!	!LO:TX:t=P:problem=kreska pseudotaktowa	!	!	!
1.F\	de-	1c\	-pe	1A/	.	1.a\	de-
=85-	=85-	=85-	=85-	=85-	=85-	=85-	=85-
.	.	2r	.	2r	.	.	.
2D\	-pre-	1d\	de-	1f\	de-	2a\	-pre-
2D\	-ca-	.	.	.	.	2a\	-ca-
2D\	-ti-	2d\	-pre-	2f\	-pre-	2a\	-ti-
=86-	=86-	=86-	=86-	=86-	=86-	=86-	=86-
!	!	!	!	!	!	!LO:TX:t=P:problem=kreska pseudotaktowa	!
1G\	-o-	2B-\	-ca-	2d\	-ca-	1b-\	-o-
.	.	2B-\	-ti-	2d\	-ti-	.	.
!LO:TX:t=P:problem=kreska pseudotaktowa	!	!	!	!LO:TX:t=P:problem=kreska pseudotaktowa	!	!	!
1C/	-(ne)m	1c\	-o-	1e\	-o-	2g,\	-(ne)m
.	.	.	.	.	.	2.cc\	no-
!	!	!	!	!LO:LB:g=original	!	!	!
=87-	=87-	=87-	=87-	=87-	=87-	=87-	=87-
*lig	*	*	*	*	*	*	*
1F\	no-	2A,\	-n(em)	2c\	nem	.	.
.	.	.	.	.	.	4b-\	.
.	.	2.d\	no-	2.f\	no-	4a\	.
!	!	!	!	!	!	!LO:TX:t=P:problem=kreska pseudotaktowa	!
.	.	.	.	.	.	4g\	.
1D\	.	.	.	.	.	2a\	.
.	.	4c\	.	4e\	.	.	.
.	.	4B-\	.	4d\	.	2.b-\	.
.	.	4A\	.	4c\	.	.	.
!	!	!	!	!LO:TX:t=P:problem=kreska pseudotaktowa	!	!	!
*Xlig	*	*	*	*	*	*	*
=88-	=88-	=88-	=88-	=88-	=88-	=88-	=88-
*lig	*	*	*	*	*	*	*
1E-X\	.	2G/	.	2B-/	.	.	.
.	.	.	.	.	.	4a/	.
!	!	!	!	!LO:SIC:v:s=2.e-	!	!	!
.	.	2.c\	.	2.e\	.	4g/	.
!	!	!	!	!	!	!LO:TX:t=P:problem=kreska pseudotaktowa	!
.	.	.	.	.	.	4f/	.
1C/	.	.	.	.	.	2g\	.
.	.	4B-\	.	4d\	.	.	.
.	.	4A\	.	2.c\	.	2.a\	.
.	.	4G\	.	.	.	.	.
*Xlig	*	*	*	*	*	*	*
=89-	=89-	=89-	=89-	=89-	=89-	=89-	=89-
1D\	.	1F/	.	.	.	.	.
.	.	.	.	4A/	.	4g/	.
.	.	.	.	2B-/	.	1f/	.
!LO:TX:t=P:problem=kreska pseudotaktowa	!	!	!	!LO:TX:t=P:problem=kreska pseudotaktowa	!	!	!
1C/	-stram	1G/	.	1c\	-stram	.	.
!	!	!	!	!	!	!LO:TX:t=P:problem=kreska pseudotaktowa	!
.	.	.	.	.	.	2e/	.
=90-	=90-	=90-	=90-	=90-	=90-	=90-	=90-
!	!	!LO:TX:t=P:problem=kreska pseudotaktowa	!	!	!	!LO:TX:t=P:problem=kreska pseudotaktowa	!
2.F\	no-	0F/	-stram.	2r	.	1f/,	stram
.	.	.	.	2c\	Qui	.	.
4E\	.	.	.	.	.	.	.
1D\	.	.	.	1d\	de-	2r	.
.	.	.	.	.	.	2f/	Qui
=91-	=91-	=91-	=91-	=91-	=91-	=91-	=91-
!	!	!	!	!	!	!LO:TX:t=P:problem=kreska pseudotaktowa	!
1C/	.	00r	.	2e,\	-des	1g\	se-
!	!	!	!	!LO:TX:t=P:problem=kreska pseudotaktowa	!	!	!
.	.	.	.	2e\	ad	.	.
!LO:TX:t=P:problem=kreska pseudotaktowa	!	!	!	!	!	!	!
1FF/	-stram	.	.	2.f\	dex-	2a,\	-des
.	.	.	.	.	.	2a\	ad
.	.	.	.	4f\	-te-	.	.
=92-	=92-	=92-	=92-	=92-	=92-	=92-	=92-
00r	.	.	.	2e,\	-ram	2.cc\	dex-
.	.	.	.	2.f\	Pa-	.	.
!	!	!	!	!	!	!LO:TX:t=P:problem=kreska pseudotaktowa	!
.	.	.	.	.	.	4b-\	te-
.	.	.	.	.	.	2a,\	-ram
.	.	.	.	4e\	.	.	.
*	*	*	*	*	*	*custos:b	*
!	!	!	!	!	!	!LO:TX:t=P::problem=kreska pseudotaktowa&colon;między nutą a kropką	!
.	.	.	.	4d\	.	[<2b-\	Pa-
!	!	!	!	!LO:TX:t=P:problem=kreska pseudotaktowa	!	!	!
.	.	.	.	4c\	.	.	.
!	!	!	!	!	!	!LO:LB:g=original	!
=93-	=93-	=93-	=93-	=93-	=93-	=93-	=93-
!	!	!LO:TX:t=P:problem=kreska pseudotaktowa	!	!	!	!LO:N:xstem:cue	!
.	.	0r	.	2B-/	.	4b-\]	.
.	.	.	.	.	.	4a/	.
.	.	.	.	2.c/	.	4g/	.
.	.	.	.	.	.	4f/	.
.	.	.	.	.	.	4e/	.
.	.	.	.	4B-/	.	4d/	.
!	!	!	!	!	!	!LO:TX:t=P:problem=kreska pseudotaktowa	!
.	.	.	.	4A/	.	2e/	.
.	.	.	.	4G/	.	.	.
=94-	=94-	=94-	=94-	=94-	=94-	=94-	=94-
!LO:TX:t=P:problem=kreska pseudotaktowa	!	!	!	!	!	!	!
0r	.	1F/	mi-	4A/	.	2.f/	.
.	.	.	.	4B-/	.	.	.
.	.	.	.	1c\	.	.	.
.	.	.	.	.	.	4e/	.
.	.	1G/	-se-	.	.	1d/	.
!	!	!	!	!LO:TX:t=P:problem=kreska pseudotaktowa	!	!	!
.	.	.	.	2B-/	.	.	.
=95-	=95-	=95-	=95-	=95-	=95-	=95-	=95-
!	!	!	!	!	!	!LO:TX:t=P:problem=kreska pseudotaktowa	!
2r	.	2.A\	-re-	2.c/	.	1c/	-tris
1F\	mi-	.	.	.	.	.	.
.	.	4B-\	.	4B-/	.	.	.
!	!	!LO:TX:t=P:problem=kreska pseudotaktowa	!	!	!	!	!
.	.	1c\	.	2A/	.	0r	.
2E\	-ſe-	.	.	2G/	.	.	.
=96-	=96-	=96-	=96-	=96-	=96-	=96-	=96-
!	!	!	!	!LO:TX:t=P:problem=kreska pseudotaktowa	!	!LO:TX:t=P:problem=kreska pseudotaktowa	!
2.D/	-re-	2B-,\	-re	0F/	-tris.	.	.
.	.	2.A\	no-	.	.	.	.
8C/L	.	.	.	.	.	.	.
8BB-/J	.	.	.	.	.	.	.
2AA/	.	.	.	.	.	1f/	mi-
.	.	4G/	.	.	.	.	.
!LO:TX:t=P:problem=kreska pseudotaktowa	!	!	!	!	!	!	!
2BB-,/	-re	1F/	.	.	.	.	.
!	!	!	!	!LO:LB:g=original	!	!	!
=97-	=97-	=97-	=97-	=97-	=97-	=97-	=97-
!	!	!	!	!LO:TX:t=P:problem=kreska pseudotaktowa	!	!	!
1GG/	no-	.	.	1r	.	1g\	-ſe-
!	!	!LO:TX:t=P:problem=kreska pseudotaktowa	!	!	!	!	!
.	.	2E/	.	.	.	.	.
!	!	!LO:LB:g=original	!	!	!	!	!
!LO:TX:t=P:problem=kreska pseudotaktowa	!	!	!	!	!	!	!
1FF/	-bis	2.F/	.	2r	.	2.a\	-re-
.	.	.	.	1f\	mi-	.	.
.	.	4G/	.	.	.	4b-\	.
!LO:LB:g=original	!	!	!	!	!	!	!
=98-	=98-	=98-	=98-	=98-	=98-	=98-	=98-
!LO:TX:t=P:problem=kreska pseudotaktowa	!	!	!	!	!	!LO:TX:t=P:problem=kreska pseudotaktowa	!
0r	.	1A\	.	.	.	1cc\	.
!	!	!	!	!LO:TX:t=P:problem=kreska pseudotaktowa	!	!	!
.	.	.	.	2e\	-ſe-	.	.
!	!	!LO:TX:t=P:problem=kreska pseudotaktowa	!	!	!	!	!
.	.	1D/	-bis.	2.d\	-re-	2b-,\	-re
.	.	.	.	.	.	2.a\	no-
.	.	.	.	8c/L	.	.	.
.	.	.	.	8B-/J	.	.	.
=99-	=99-	=99-	=99-	=99-	=99-	=99-	=99-
1.D\	Quo-	1r	.	2A/	re	.	.
.	.	.	.	.	.	4g/	.
.	.	.	.	2B-,/	.	4f/	.
.	.	.	.	.	.	4e/	.
.	.	2r	.	2A/	no-	1f/	.
!LO:TX:t=P:problem=kreska pseudotaktowa	!	!	!	!	!	!	!
2D/	-ni-	1A\	Quo-	2F/	.	.	.
=100-	=100-	=100-	=100-	=100-	=100-	=100-	=100-
!	!	!	!	!LO:TX:t=P:problem=kreska pseudotaktowa	!	!LO:TX:t=P:problem=kreska pseudotaktowa	!
2C/	-am	.	.	1c\	-bis	1e/,	-bis.
2AA/	Tu	2A\	-ni-	.	.	.	.
2BB-/	so-	2G,/	-am	0r	.	0r	.
!LO:TX:t=P:problem=kreska pseudotaktowa	!	!	!	!	!	!	!
2C/	-l(us)	2E/	Tu	.	.	.	.
=101-	=101-	=101-	=101-	=101-	=101-	=101-	=101-
2.D/	San-	2F/	so-	.	.	.	.
.	.	2F/	-l(us)	.	.	.	.
4C/	.	.	.	.	.	.	.
!	!	!	!	!	!	!LO:TX:t=P:problem=kreska pseudotaktowa	!
1BB-/	.	1G/	S(an)-	1d\	Tu	1r	.
=102-	=102-	=102-	=102-	=102-	=102-	=102-	=102-
!LO:TX:t=P:problem=kreska pseudotaktowa	!	!LO:TX:t=P:problem=kreska pseudotaktowa	!	!	!	!	!
1AA/	-ct(us)	1A\	-ctus	2c/	so-	1a\	Tu
.	.	.	.	2A/	-l(us)	.	.
!LO:TX:t=P:problem=kreska pseudotaktowa	!	!	!	!	!	!	!
1r	.	0r	.	1.B-/	Do-	2g\	so-
.	.	.	.	.	.	2f/	-l(us)
=103-	=103-	=103-	=103-	=103-	=103-	=103-	=103-
1G\	Tu	.	.	.	.	2g\	Do-
.	.	.	.	2B-/	-mi-	2g\	-mi-
!	!	!	!	!LO:TX:t=P:problem=kreska pseudotaktowa	!	!LO:TX:t=P:problem=kreska pseudotaktowa	!
2F\	so-	1d\	Tu	1A/,	-n(us)	1a\	-n(us)
!LO:TX:t=P:problem=kreska pseudotaktowa	!	!	!	!	!	!	!
2D\	-l(us)	.	.	.	.	.	.
=104-	=104-	=104-	=104-	=104-	=104-	=104-	=104-
*	*	*	*	*	*ij	*	*
1.E-X\	Do-	2c\	so-	1.G/	Do-	0r	.
.	.	2B-\	-l(us)	.	.	.	.
.	.	2c\	D(o-	.	.	.	.
2E-\	-mi-	2c\	-mi)-	2G/	-mi-	.	.
=105-	=105-	=105-	=105-	=105-	=105-	=105-	=105-
!LO:TX:t=P:problem=kreska pseudotaktowa	!	!	!	!	!	!LO:TX:t=P:problem=kreska pseudotaktowa	!
0D\	-n(us)	2d,\	-nus	2A,/	-n(us)	1r	.
*	*	*	*	*	*Xij	*	*
!	!	!LO:TX:t=P:problem=kreska pseudotaktowa	!	!LO:TX:t=P:problem=kreska pseudotaktowa	!	!	!
.	.	2d\	Tu	2f\	Tu	.	.
!	!	!	!	!	!	!LO:LB:g=original	!
.	.	1d\	so-	1f\	so-	2r	.
.	.	.	.	.	.	2a\	Tu
=106-	=106-	=106-	=106-	=106-	=106-	=106-	=106-
00r	.	2c\	-lus	2e\	-lus	1a\	So-
.	.	2A\	al-	2c\	al-	.	.
.	.	1.B-\	-tiſ-	1.d\	-tiſ-	2g\	-lus
.	.	.	.	.	.	2f/	al-
=107-	=107-	=107-	=107-	=107-	=107-	=107-	=107-
.	.	.	.	.	.	2g\	-tiſ-
.	.	2B-\	-si	2d\	-si-	2g\	-si-
!	!	!LO:TX:t=P:problem=kreska pseudotaktowa	!	!LO:TX:t=P:problem=kreska pseudotaktowa	!	!LO:TX:t=P:problem=kreska pseudotaktowa	!
.	.	1A\	m(us)	1e\,	-m(us)	1a\	-m(us)
=108-	=108-	=108-	=108-	=108-	=108-	=108-	=108-
!	!	!	!	!	!	!0	!
0F\	Je-	0c\	Je-	0f\	Je-	0a\	Je-
=109-	=109-	=109-	=109-	=109-	=109-	=109-	=109-
*	*	*	*	*custos:e-	*	*	*
!	!	!	!	!LO:TX:t=P:problem=kreska pseudotaktowa	!	!	!
!	!	!LO:TX:t=P:problem=kreska pseudotaktowa	!	!	!	!LO:TX:t=P:problem=kreska pseudotaktowa	!
1G\	-su	1B-\,	-su	1d\	-su	1g\	-su
!	!	!	!	!LO:LB:g=original	!	!	!
1E-X\	X-	1B-\	x-	1e-X\	x-	1g\	X-
=110-	=110-	=110-	=110-	=110-	=110-	=110-	=110-
!LO:TX:t=P:problem=kreska pseudotaktowa	!	!	!	!	!	!LO:TX:t=P:problem=kreska pseudotaktowa	!
0F\	-te	2A,\	-te	1c\	-te	0f/	-te
.	.	2F/	Cum	.	.	.	.
.	.	2A\	S(an)-	2r	.	.	.
.	.	2A\	-cto	2c\	Cum	.	.
=111-	=111-	=111-	=111-	=111-	=111-	=111-	=111-
0r	.	2.B-\	Spi-	2d\	S(an)-	2r	.
!	!	!	!	!LO:TX:t=P:problem=kreska pseudotaktowa	!	!	!
.	.	.	.	2d\	-cto	2f/	Cum
!	!	!LO:TX:t=P:problem=kreska pseudotaktowa	!	!	!	!	!
.	.	4B-\	-ri-	.	.	.	.
.	.	2A,/	-tu	2.f\	Spi-	2a\	S(an)-
.	.	2D/	Cum	.	.	2a\	-cto
.	.	.	.	4e\	.	.	.
!	!	!LO:LB:g=original	!	!	!	!	!
=112-	=112-	=112-	=112-	=112-	=112-	=112-	=112-
!LO:TX:t=P:problem=kreska pseudotaktowa	!	!	!	!	!	!	!
1r	.	2G/	San-	2d\	.	2b-\	Spi-
!	!	!LO:TX:t=P:problem=kreska pseudotaktowa	!	!	!	!LO:TX:t=P:problem=kreska pseudotaktowa	!
.	.	2G/	-cto	4c/	.	2b-\	-ri-
.	.	.	.	4B-/	.	.	.
2r	.	4F/	San-	2c\	.	2a,\	-tu
.	.	4G/	.	.	.	.	.
2F\	Cum	4A/	.	2c\	-ri-	2.cc\	Spi-
.	.	4B-/	.	.	.	.	.
=113-	=113-	=113-	=113-	=113-	=113-	=113-	=113-
*	*	*lig	*	*	*	*	*
!	!	!	!	!LO:TX:t=P:problem=kreska pseudotaktowa	!	!	!
2A\	S(an)-	1c\	.	1F/	-tu	.	.
.	.	.	.	.	.	4b-\	.
2A,\	-cto	.	.	.	.	1a\	.
2B-\	Spi-	1d\	.	0r	.	.	.
!LO:TX:t=P:problem=kreska pseudotaktowa	!	!	!	!	!	!	!
2B-\	-ri-	.	.	.	.	2g\	-ri-
*	*	*Xlig	*	*	*	*	*
!LO:LB:g=original	!	!	!	!	!	!	!
=114-	=114-	=114-	=114-	=114-	=114-	=114-	=114-
!	!	!	!	!LO:TX:t=P:problem=kreska pseudotaktowa	!	!LO:TX:t=P:problem=kreska pseudotaktowa	!
2.A\	-tu,	2.c\	.	.	.	1a\	-tu
4G,\	.	4B-\	.	.	.	.	.
2F\	Spi-	2A/	.	1c\	Cum	0r	.
4E\	.	4G/	-cto	.	.	.	.
4D\	.	4F/	.	.	.	.	.
=115-	=115-	=115-	=115-	=115-	=115-	=115-	=115-
1C/	.	2G/	Spi-	2e\	San-	.	.
.	.	1c\	.	2e\	-cto	.	.
2.D\	.	.	.	2f\	Spi-	1r	.
!	!	!	!	!LO:TX:t=P:problem=kreska pseudotaktowa	!	!	!
.	.	2B-\	-ri-	2f\	-ri-	.	.
4D\	-ri-	.	.	.	.	.	.
=116-	=116-	=116-	=116-	=116-	=116-	=116-	=116-
*M3/2	*	*M3/2	*	*M3/2	*	*M3/2	*
!LO:TX:t=P:problem=kreska pseudotaktowa	!	!LO:TX:t=P:problem=kreska pseudotaktowa	!	!	!	!	!
1.C/	-tu	1.c\	tu	2e\	-tu	2r	.
.	.	.	.	2r	.	2.g/	in
!	!	!	!	!LO:TX:t=P::problem=kreska pseudotaktowa&colon;miedzy nutą a kropką	!	!	!
.	.	.	.	[<2c\	in	.	.
!	!	!	!	!	!	!LO:TX:t=P:problem=kreska pseudotaktowa	!
.	.	.	.	.	.	4f/	.
=117-	=117-	=117-	=117-	=117-	=117-	=117-	=117-
!	!	!	!	!LO:N:xstem:cue	!	!	!
1.r	.	1.r	.	4c\]	.	2g\	glo-
.	.	.	.	4B-/	.	.	.
.	.	.	.	2c\	glo-	2a\	.
!	!	!	!	!LO:TX:t=P:problem=kreska pseudotaktowa	!	!LO:TX:t=P:problem=kreska pseudotaktowa	!
.	.	.	.	2d\	.	2f/	-ri-
=118-	=118-	=118-	=118-	=118-	=118-	=118-	=118-
!	!	!	!	!	!	!LO:TX:t=P:problem=kreska pseudotaktowa	!
2r	.	2.G/	in	2B-/	-ri-	1.g\	-a
2.C/	in	.	.	1c\	-a	.	.
.	.	4F/	.	.	.	.	.
!	!	!LO:TX:t=P:problem=kreska pseudotaktowa	!	!	!	!	!
.	.	2G/	.	.	.	.	.
!LO:TX:t=P:problem=kreska pseudotaktowa	!	!	!	!	!	!	!
4BB-/	.	.	.	.	.	.	.
!	!	!	!	!	!	!LO:LB:g=original	!
=119-	=119-	=119-	=119-	=119-	=119-	=119-	=119-
!	!	!	!	!	!	!LO:TX:t=P:problem=kreska pseudotaktowa	!
2C/	glo-	2A\	glo-	1.r	.	1.r	.
2D/	.	2F/	ri-	.	.	.	.
!LO:TX:t=P:problem=kreska pseudotaktowa	!	!LO:TX:t=P:problem=kreska pseudotaktowa	!	!	!	!	!
2BB-/	-ri-	[<2G/	-a	.	.	.	.
=120-	=120-	=120-	=120-	=120-	=120-	=120-	=120-
!LO:TX:t=P:problem=kreska pseudotaktowa	!	!LO:N:xstem:cue	!	!	!	!	!
1.C/	-a	4G/]	.	2r	.	2.g/	in
.	.	4F/	.	.	.	.	.
.	.	4E/	.	2.c/	in	.	.
.	.	4D/	.	.	.	4f/	.
!	!	!LO:TX:t=P:problem=kreska pseudotaktowa	!	!	!	!LO:TX:t=P:problem=kreska pseudotaktowa	!
.	.	2E/	.	.	.	2g/	.
.	.	.	.	4B-/	.	.	.
=121-	=121-	=121-	=121-	=121-	=121-	=121-	=121-
!	!	!LO:TX:t=P:problem=kreska pseudotaktowa	!	!	!	!	!
2F\	De-	0.r	.	2c\	.	2a\	glo-
2D\	-i	.	.	2d\	.	2f/	-ri-
!LO:TX:t=P:problem=kreska pseudotaktowa	!	!	!	!LO:TX:t=P:problem=kreska pseudotaktowa	!	!LO:TX:t=P:problem=kreska pseudotaktowa	!
2G\	Pa-	.	.	2B-/L	.	2g\	-a
!	!	!	!	!LO:LB:g=original	!	!	!
=122-	=122-	=122-	=122-	=122-	=122-	=122-	=122-
2C,/	-tris	.	.	2c/	glo-	2e/	De-
2D\	a-	.	.	2A/	.	2f/	-i
!LO:TX:t=P:problem=kreska pseudotaktowa	!	!	!	!LO:TX:t=P:problem=kreska pseudotaktowa	!	!LO:TX:t=P::problem=kreska pseudotaktowa&colon;między nutą a kropką	!
2G\	.	.	.	2B-/	-ri-	[<2g\	Pa-
!	!	!LO:PB:g=original	!	!	!	!	!
=123-	=123-	=123-	=123-	=123-	=123-	=123-	=123-
!LO:TX:t=P:problem=kreska pseudotaktowa	!	!	!	!	!	!LO:N:xstem:cue	!
1.C/	-men	2.G/	in	1c\,	-a	4g\]	.
.	.	.	.	.	.	4f/	.
.	.	.	.	.	.	2e/	-tris
.	.	4F/	.	.	.	.	.
!	!	!LO:TX:t=P:problem=kreska pseudotaktowa	!	!	!	!LO:TX:t=P:problem=kreska pseudotaktowa	!
.	.	2G/	.	2B-/	De-	2d/	.
=124-	=124-	=124-	=124-	=124-	=124-	=124-	=124-
1.r	.	2A\	glo-	(2.c/	-i	2c/	a-
!	!	!	!	!	!	!LO:TX:t=P:problem=kreska pseudotaktowa	!
.	.	2F/	-ri-	.	.	1d/,	-men
.	.	.	.	4A/)	.	.	.
!	!	!	!	!LO:TX:t=P:problem=kreska pseudotaktowa	!	!	!
.	.	2G/	-a	2B-/	Pa-	.	.
=125-	=125-	=125-	=125-	=125-	=125-	=125-	=125-
2.C/	in	2.E/	De-	1.c\	-tris	2r	.
.	.	.	.	.	.	2d/	a-
4BB-/	.	4D/	.	.	.	.	.
!LO:TX:t=P:problem=kreska pseudotaktowa	!	!	!	!	!	!LO:TX:t=P:problem=kreska pseudotaktowa	!
2C/	.	2E/	-i	.	.	2g\	.
=126-	=126-	=126-	=126-	=126-	=126-	=126-	=126-
!	!	!	!	!LO:TX:t=P:problem=kreska pseudotaktowa	!	!	!
2D/	glo-	2F/	Pa-	1.r	.	1f/	-men
!	!	!LO:TX:t=P:problem=kreska pseudotaktowa	!	!	!	!	!
2BB-/	-ri-	1G/	.	.	.	.	.
!LO:TX:t=P:problem=kreska pseudotaktowa	!	!	!	!	!	!	!
*	*	*	*	*	*	*	*ij
2C,/	-a	.	.	.	.	2e/	a-
!LO:LB:g=original	!	!	!	!	!	!	!
=127-	=127-	=127-	=127-	=127-	=127-	=127-	=127-
!	!	!	!	!	!	!LO:TX:t=P:problem=kreska pseudotaktowa	!
2AA/	De-	2F,/	-tris	2.c\	in	1.f/	-men
2FF/	-i	2.A/	a-	.	.	.	.
.	.	.	.	4B-/	.	.	.
!LO:TX:t=P:problem=kreska pseudotaktowa	!	!	!	!LO:TX:t=P:problem=kreska pseudotaktowa	!	!	!
2AA/	Pa-	.	.	2c\	.	.	.
.	.	4G/	.	.	.	.	.
=128-	=128-	=128-	=128-	=128-	=128-	=128-	=128-
2BB-/	-tris	2.F/	.	2d\	glo-	2r	.
*	*	*	*	*	*	*	*Xij
2GG/	a-	.	.	2B-/	-ri-	2g\	a-
.	.	8E/L	.	.	.	.	.
.	.	8D/J	.	.	.	.	.
!LO:TX:t=P:problem=kreska pseudotaktowa	!	!LO:TX:t=P:problem=kreska pseudotaktowa	!	!LO:TX:t=P::problem=kreska pseudotaktowa&colon;między nutą a kropką	!	!LO:TX:t=P:problem=kreska pseudotaktowa	!
2C/	.	2E/	.	[2c/	-a	2a\	men
=129-	=129-	=129-	=129-	=129-	=129-	=129-	=129-
!	!	!	!	!LO:N:xstem:cue	!	!	!
1F\,	-men	2.F/	.	4c/]	.	2.cc\	a-
.	.	.	.	4B-/	.	.	.
.	.	.	.	4A/	.	.	.
.	.	4G/	.	4G/	.	4b-\	.
!LO:TX:t=P::problem=kreska pseudotaktowa&colon;między nutą a kropką	!	!	!	!LO:TX:t=P:problem=kreska pseudotaktowa	!	!	!
[<2F\	a-	4A/	.	2F/	.	4a\	.
!	!	!	!	!	!	!LO:TX:t=P:problem=kreska pseudotaktowa	!
.	.	4B-/	.	.	.	4g\	.
=130-	=130-	=130-	=130-	=130-	=130-	=130-	=130-
!LO:N:xstem:cue	!	!	!	!	!	!	!
4F\]	.	2c\	.	2A/	De-	4f/	.
4E\	.	.	.	.	.	4e/	.
!	!	!	!	!	!	!LO:TX:t=P:problem=kreska pseudotaktowa	!
4D/	.	2.d\	.	2A/	-i	1d/	.
4C/	.	.	.	.	.	.	.
!	!	!	!	!LO:TX:t=P:problem=kreska pseudotaktowa	!	!	!
4BB-/	.	.	.	[<2B-/	Pa-	.	.
!LO:TX:t=P:problem=kreska pseudotaktowa	!	!LO:TX:t=P:problem=kreska pseudotaktowa	!	!	!	!	!
4AA/	.	4c\	.	.	.	.	.
=131-	=131-	=131-	=131-	=131-	=131-	=131-	=131-
!	!	!	!	!LO:N:xstem:cue	!	!	!
1GG/	.	4B-\	.	4B-/]	.	2.g\	.
.	.	4A\	.	4c/	.	.	.
.	.	2.B-\	.	1d\	-tris	.	.
.	.	.	.	.	.	4f/	.
1D\	.	.	.	.	.	1f/	.
!	!	!LO:TX:t=P:problem=kreska pseudotaktowa	!	!	!	!	!
.	.	4A\	.	.	.	.	.
=132-	=132-	=132-	=132-	=132-	=132-	=132-	=132-
.	.	2F/	.	2B-/	a-	.	.
1C/	.	1G/	.	1c\	.	2f/	.
!	!	!	!	!	!	!LO:TX:t=P:problem=kreska pseudotaktowa	!
.	.	.	.	.	.	2e/	.
=133-	=133-	=133-	=133-	=133-	=133-	=133-	=133-
00FF/;	-men.	00F/;	-men.	00A/;	-men.	00f/;	-men
==	==	==	==	==	==	==	==
*-	*-	*-	*-	*-	*-	*-	*-
!!!system-decoration: [(s1,s2,s3,s4)]
!!!RDF**kern: > = above
!!!RDF**kern: < = below
!!!EED: Leszek Kubiak
!!!EEV: 2021-03-18
!!!ENC: Krzysztof Stępień
!!!END: 2021-03-02
!!!YEC: Copyright 2022 Narodowy Instytut Fryderyka Chopina (https://polishscores.org)
!!!YEM: License CC-BY-4.0 (https://creativecommons.org/licenses/by/4.0)
